X: 1696
T: Ma Seal's Varsovienna No 1
B: australian traditional tunes wiki
M:3/4
L:1/8
R: Varsovienne
Q: 1/4=100
K:G
V:1 
(3DGB|:"G"d2 "D"(3BdB A2|"G"G4 (3GBd|"C"g2f2e2|"G"d4 (3DGB|
"D"c2A2 (3GBG|F4 (3FAc|1e2 (3dgd (3cec|"G"B3A GB:|2"D"e2d>d (3BdB|"G"G4GB||
|:"G"d>d d>B GB|"C"e>e e2 "D"d>d|c>B c>A F2|"G"G<B-B2 (3DGB|
"G"d>d d2 (3GBd| "C"e>e e2 "D"d2|(3faf f>e c>F|"G"G2g2z2:|
% abcbook-tune_id 6342d53a77cb602e40de969d


% abcbook-boost 0
% abcbook-tablature 
% abcbook-transpose 
% abcbook-lastupdated 1665324378451
% abcbook-soundfonts 
% abcbook-repeats 1
% NFF Book 2006

